!!!COM: Anonymous
!!!OTL@@LAT: Surrexit Dominus valete luctus
!!!TXO: Latin
!!!ODT: 
!!!GTL: Hymnbook L 1642
!!!ARL: Biblioteka Diecezjalna w Sandomierzu 
!!!voices:	4
**kern	**text	**kern	**text	**kern	**text	**kern	**text
*staff4	*staff4	*staff3	*staff3	*staff2	*staff2	*staff1	*staff1
*I"Basso	*	*I"Canto III	*	*I"Canto II	*	*I"Canto I	*
=1-	=1-	=1-	=1-	=1-	=1-	=1-	=1-
*clefF4	*	*clefG2	*	*clefG2	*	*clefG2	*
*k[b-]	*	*k[b-]	*	*k[b-]	*	*k[b-]	*
*met(c|)	*	*met(c|)	*	*met(c|)	*	*met(c|)	*
*M2/2	*	*M2/2	*	*M2/2	*	*M2/2	*
!	!	!	!	!	!	!LO:TX:Z=31:t=tempo 2/2	!
*	*	*	*	*	*	*MM280	*
1G	Sur-	1b-	Sur-	1g	Sur-	1g	Sur-
=2	=2	=2	=2	=2	=2	=2	=2
1G	-re-	1g	-re-	1g	-re-	1b-	-re-
=3	=3	=3	=3	=3	=3	=3	=3
1F	-xit	1cc	-xit	1a	-xit	1cc	-xit
=4	=4	=4	=4	=4	=4	=4	=4
2G\	Do-	2g/	Do-	2g/	Do-	2b-\	Do-
2E-\	-mi-	2cc\	-mi-	2g/	-mi-	2cc\	-mi-
=5	=5	=5	=5	=5	=5	=5	=5
1D	-nus	1a	-nus	1f#	-nus	1dd	-nus
=6	=6	=6	=6	=6	=6	=6	=6
2r	.	2r	.	2r	.	2r	.
2D\	va-	2dd\	va-	2f/	va-	2a/	va-
=7	=7	=7	=7	=7	=7	=7	=7
1G	-le-	1b-	-le-	1g	-le-	1b-	-le-
=8	=8	=8	=8	=8	=8	=8	=8
1G	-te	2b-\	-te	1b-	-te	1b-	-te
.	.	2g/	.	.	.	.	.
=9	=9	=9	=9	=9	=9	=9	=9
1F	luc-	1cc	luc-	1a	luc-	1cc	luc-
=10	=10	=10	=10	=10	=10	=10	=10
1F	-tus	1a	-tus	1a	-tus	1cc	-tus
=11	=11	=11	=11	=11	=11	=11	=11
1r	.	1r	.	1r	.	1r	.
=12	=12	=12	=12	=12	=12	=12	=12
1D	To-	1dd	To-	1dd	To-	1ff	To-
=13	=13	=13	=13	=13	=13	=13	=13
1A	-tus	1a	-tus	1cc	-tus	2ee\	-tus
.	.	.	.	.	.	2cc\	.
=14	=14	=14	=14	=14	=14	=14	=14
2G\	con-	2b-\	con-	2b-\	con-	2dd\	con-
2G\	-ci-	2g/	-ci-	2b-\	-ci-	2ee\	-ci-
=15	=15	=15	=15	=15	=15	=15	=15
1F	-nat	1cc	-nat	1a	-nat	1ff	-nat
=16	=16	=16	=16	=16	=16	=16	=16
2r	.	2r	.	2r	.	2r	.
2F\	or-	2cc\	or-	2a/	or-	2ff\	or-
=17	=17	=17	=17	=17	=17	=17	=17
4BB-/	-bis	1dd	-bis	1b-	-bis	1dd	-bis
4C/	.	.	.	.	.	.	.
4D\	.	.	.	.	.	.	.
4E\	.	.	.	.	.	.	.
=18	=18	=18	=18	=18	=18	=18	=18
2F\	al-	2a/	al-	2a/	al-	2cc\	al-
2G\	-le-	4b-\	-le-	[2g/	-le-	2b-\	-le-
.	.	4g/	.	.	.	.	.
=19	=19	=19	=19	=19	=19	=19	=19
1D	-lu-	1a	-lu-	2g/]	.	1a	-lu-
.	.	.	.	2f#/	-lu-	.	.
=20	=20	=20	=20	=20	=20	=20	=20
1GG	-ia	1b-	-ia	1g	-ia	1g	-ia
=21	=21	=21	=21	=21	=21	=21	=21
1r	.	1r	.	1r	.	1r	.
=22	=22	=22	=22	=22	=22	=22	=22
1D	Ut	1a	Ut	1f#	Ut	1a	Ut
=23	=23	=23	=23	=23	=23	=23	=23
1D	qui	1f#i	qui	1f#i	qui	1a	qui
=24	=24	=24	=24	=24	=24	=24	=24
1G	nos	1b-	nos	1g	nos	1b-	nos
=25	=25	=25	=25	=25	=25	=25	=25
2F\	san-	2a/	san-	2a/	san-	2cc\	san-
2E-\	-gui-	2cc\	-gui-	2g/	-gui-	2cc\	-gui-
=26	=26	=26	=26	=26	=26	=26	=26
1D	-ne	1a	-ne	1f#	-ne	1dd	-ne
=27	=27	=27	=27	=27	=27	=27	=27
2r	.	2r	.	2r	.	2r	.
2G\	su-	2dd\	su-	2b-\	su-	2dd\	su-
=28	=28	=28	=28	=28	=28	=28	=28
1G	-o	1dd	-o	1b-	-o	1dd	-o
=29	=29	=29	=29	=29	=29	=29	=29
1C	re-	1cc	re-	1cc	re-	1ee	re-
=30	=30	=30	=30	=30	=30	=30	=30
1F	-de-	1cc	-de-	1a	-de-	1ff	-de-
=31	=31	=31	=31	=31	=31	=31	=31
1F	-mit	1cc	-mit	1a	-mit	1ff	-mit
=32	=32	=32	=32	=32	=32	=32	=32
1r	.	1r	.	1r	.	1r	.
=33	=33	=33	=33	=33	=33	=33	=33
1F	il-	1cc	il-	1a	il-	1cc	il-
=34	=34	=34	=34	=34	=34	=34	=34
1D	-lu-	1f	-lu-	1a	-lu-	1dd	-lu-
=35	=35	=35	=35	=35	=35	=35	=35
2F\	-stret	2cc\	-stret	2a/	-stret	2cc\	-stret
2F\	te-	2cc\	te-	2a/	te-	2cc\	te-
=36	=36	=36	=36	=36	=36	=36	=36
1C	-ne-	1cc	-ne-	1g	-ne-	1cc	-ne-
=37	=37	=37	=37	=37	=37	=37	=37
1C	-at-	1cc	-at-	1e	-at-	1cc	-at-
=38	=38	=38	=38	=38	=38	=38	=38
1G	-que	1dd	-que	1d	-que	1b-	-que
=39	=39	=39	=39	=39	=39	=39	=39
1G	cor-	1b-	cor-	1g	cor-	1b-	cor-
=40	=40	=40	=40	=40	=40	=40	=40
2G\	-da	2b-\	-da	2g/	-da	2b-\	-da
2G\	no-	2g/	no-	2g/	no-	2b-\	no-
=41	=41	=41	=41	=41	=41	=41	=41
1E-	-stra	1cc	-stra	1g	-stra	1cc	-stra
=42	=42	=42	=42	=42	=42	=42	=42
1D	Chri-	1a	Chri-	1f#	Chri-	1dd	Chri-
=43	=43	=43	=43	=43	=43	=43	=43
1D	-stus	1a	-stus	1f#	-stus	1dd	-stus
=44	=44	=44	=44	=44	=44	=44	=44
1r	.	1r	.	1r	.	1r	.
=45	=45	=45	=45	=45	=45	=45	=45
1D	Qui	1dd	Qui	1dd	Qui	1ff	Qui
=46	=46	=46	=46	=46	=46	=46	=46
1D	nunc	1dd	nunc	1dd	nunc	1ff	nunc
=47	=47	=47	=47	=47	=47	=47	=47
1A	tar-	1ee	tar-	1cc#	tar-	1ee	tar-
=48	=48	=48	=48	=48	=48	=48	=48
2D\	-ta-	2dd\	-ta-	2dd\	-ta-	2ff#\	-ta-
2D\	-re-	2dd\	-re-	2dd\	-re-	2ff#\	-re-
=49	=49	=49	=49	=49	=49	=49	=49
1G	-as	1dd	-as	1bn	-as	1gg	-as
=50	=50	=50	=50	=50	=50	=50	=50
2r	.	2r	.	2r	.	2r	.
2C/	fre-	2ee\	fre-	2cc\	fre-	2ee\	fre-
=51	=51	=51	=51	=51	=51	=51	=51
1C	-git-	1ee	-git-	1cc	-git-	1ee	-git-
=52	=52	=52	=52	=52	=52	=52	=52
1F	-que	1cc	-que	1a	-que	1ff	-que
=53	=53	=53	=53	=53	=53	=53	=53
4BB-/	di-	1dd	di-	1b-	di-	1dd	di-
4C/	.	.	.	.	.	.	.
4D\	.	.	.	.	.	.	.
4E\	.	.	.	.	.	.	.
=54	=54	=54	=54	=54	=54	=54	=54
2F\	-ras	2a/	-ras	2a/	-ras	2cc\	-ras
2G\	ca-	2g/	ca-	[2g/	ca-	2b-\	ca-
=55	=55	=55	=55	=55	=55	=55	=55
1D	-te-	1a	-te-	2g/]	.	1a	-te-
.	.	.	.	2f#/	-te-	.	.
=56	=56	=56	=56	=56	=56	=56	=56
[1GG	-nas	[1b-	-nas	[1g	-nas	[1g	-nas
=57	=57	=57	=57	=57	=57	=57	=57
1GG]	.	1b-]	.	1g]	.	1g]	.
=58	=58	=58	=58	=58	=58	=58	=58
*M3/1	*	*M3/1	*	*M3/1	*	*M3/1	*
!	!	!	!	!	!	!LO:TX:Z=31:t=tempo 3/1	!
*	*	*	*	*	*	*MM560	*
0D	Con-	0a	Con-	0f#	Con-	0a	Con-
1D	-clu-	1f#i	-clu-	1f#	-clu-	1a	-clu-
=59	=59	=59	=59	=59	=59	=59	=59
0G	-sas-	0b-	-sas-	0g	-sas-	0b-	-sas-
1G	-que	1g	-que	1g	-que	1b-	-que
=60	=60	=60	=60	=60	=60	=60	=60
1F	Pa-	1cc	Pa-	1a	Pa-	1cc	Pa-
1F	-trum	1cc	-trum	1a	-trum	1cc	-trum
1F	re-	1a	re-	1a	re-	1cc	re-
=61	=61	=61	=61	=61	=61	=61	=61
0D	-du-	0dd	-du-	0f	-du-	0dd	-du-
1D	-xit	1a	-xit	1f	-xit	1dd	-xit
=62	=62	=62	=62	=62	=62	=62	=62
1BB-	Pa-	1b-	Pa-	1dd	Pa-	1ff	Pa-
1BB-	-trum	1b-	-trum	1dd	-trum	1ff	-trum
1BB-	re-	1b-	re-	1dd	re-	1ff	re-
=63	=63	=63	=63	=63	=63	=63	=63
0BB-	-du-	1dd	-du-	0b-	-du-	0dd	-du-
.	.	1b-	.	.	.	.	.
1F	-xit	1cc	-xit	1a	-xit	1cc	-xit
=64	=64	=64	=64	=64	=64	=64	=64
1G	a-	1g	a-	0g	a-	1b-	a-
0D	-ni-	0a	-ni-	.	.	0a	-ni-
.	.	.	.	1f#i	-ni-	.	.
=65	=65	=65	=65	=65	=65	=65	=65
0.GG	-mas	0.b-	-mas	0.g	-mas	0.g	-mas
=66	=66	=66	=66	=66	=66	=66	=66
*met(c|)	*	*met(c|)	*	*met(c|)	*	*met(c|)	*
*M2/2	*	*M2/2	*	*M2/2	*	*M2/2	*
!	!	!	!	!	!	!LO:TX:Z=54:t=tempo 2/2	!
*	*	*	*	*	*	*MM280	*
1D	Mor-	1dd	Mor-	1dd	Mor-	1ff	Mor-
=67	=67	=67	=67	=67	=67	=67	=67
1D	-tem	1dd	-tem	1dd	-tem	1ff	-tem
=68	=68	=68	=68	=68	=68	=68	=68
1A	mor-	1ee	mor-	1cc#	mor-	1ee	mor-
=69	=69	=69	=69	=69	=69	=69	=69
2D\	-te	2dd\	-te	2dd\	-te	2ff#i\	-te
2D\	stra-	2dd\	stra-	2dd\	stra-	2ff#\	stra-
=70	=70	=70	=70	=70	=70	=70	=70
1G	-vit	1dd	-vit	1bn	-vit	1gg	-vit
=71	=71	=71	=71	=71	=71	=71	=71
2r	.	2r	.	2r	.	2r	.
2C/	Vi-	2ee\	Vi-	2cc\	Vi-	2ee\	Vi-
=72	=72	=72	=72	=72	=72	=72	=72
1C	-tam-	1ee	-tam-	1cc	-tam-	1ee	-tam-
=73	=73	=73	=73	=73	=73	=73	=73
1F	-que	1cc	-que	1a	-que	1ff	-que
=74	=74	=74	=74	=74	=74	=74	=74
4BB-/	no-	1dd	no-	1b-	no-	1dd	no-
4C/	.	.	.	.	.	.	.
4D\	.	.	.	.	.	.	.
4E\	.	.	.	.	.	.	.
=75	=75	=75	=75	=75	=75	=75	=75
2F\	-bis	2a/	-bis	2a/	-bis	2cc\	-bis
2G\	do-	2g/	do-	[2g/	do-	2b-\	do-
=76	=76	=76	=76	=76	=76	=76	=76
1D	-na-	1a	-na-	2g/]	.	1a	-na-
.	.	.	.	2f#/	-na-	.	.
=77	=77	=77	=77	=77	=77	=77	=77
[1GG	-vit	[1b-	.	[1g	.	[1g	-vit
=78	=78	=78	=78	=78	=78	=78	=78
1GG]	.	1b-]	.	1g]	.	1g]	.
=79	=79	=79	=79	=79	=79	=79	=79
*M3/1	*	*M3/1	*	*M3/1	*	*M3/1	*
!	!	!	!	!	!	!LO:TX:Z=31:t=tempo 3/1	!
*	*	*	*	*	*	*MM560	*
0D	Et	0a	-Et	0f#	-Et	0a	Et
1D	con-	1f#i	con-	1f#	con-	1a	con-
=80	=80	=80	=80	=80	=80	=80	=80
0G	-strin-	0b-	-strin-	0g	-strin-	0b-	-strin-
1G	-xit	1g	-xit	1g	-xit	1b-	-xit
=81	=81	=81	=81	=81	=81	=81	=81
1F	mi-	1cc	mi-	1a	mi-	1cc	mi-
1F	-se-	1cc	-se-	1a	-se-	1cc	-se-
1F	-ras	1a	-ras	1a	-ras	1cc	-ras
=82	=82	=82	=82	=82	=82	=82	=82
0D	ma-	0dd	ma-	0f	ma-	0dd	ma-
1D	-nus	1a	-nus	1f	-nus	1dd	-nus
=83	=83	=83	=83	=83	=83	=83	=83
1BB-	mi-	1b-	mi-	1dd	mi-	1ff	mi-
1BB-	-se-	1b-	-se-	1dd	-se-	1ff	-se-
1BB-	-ras	1b-	-ras	1dd	-ras	1ff	-ras
=84	=84	=84	=84	=84	=84	=84	=84
0BB-	ma-	1dd	ma-	0b-	ma-	0dd	ma-
.	.	1b-	.	.	.	.	.
1F	-nus	1cc	-nus	1a	-nus	1cc	-nus
=85	=85	=85	=85	=85	=85	=85	=85
1G	Plu-	1g	Plu-	0g	Plu-	1b-	Plu-
0D	-to-	0a	-to-	.	.	0a	-to-
.	.	.	.	1f#	-to-	.	.
=86	=86	=86	=86	=86	=86	=86	=86
0.GG	-nis.	0.bn	-nis.	0.g	-nis.	0.g	-nis.
==	==	==	==	==	==	==	==
*-	*-	*-	*-	*-	*-	*-	*-
!!!GTL: Hymnbook L 1642
!!!EFL: 18/39
!!!YEM: Creative Commons CC/BY/NC/SA 4.0
!!!ENC: Marcin Konik
!!!END: 2015-02-17 
!!!EED: Marcin Konik
!!!EEV: 
!!!ONB: Translated from MusicXML and edited by Marcin Konik
!!!CharacterEncoding: utf-8
!!!RDF**kern: i=editorial accidental
!!muse2ps: z14jc180F
!!title: @{OTL}, @{GTL}: @{pag}, ed. @{ENC}
